dist/svg/android.svg

<svg width="16" height="16" viewBox="0 0 16 16" fill="rgb(34, 34, 34)" xmlns="http://www.w3.org/2000/svg"><title>android</title><path d="M3.5 6.00002H12.5V11.5C12.5 12.3 11.8 13 11 13V15C11 15.6 10.6 16 10 16C9.4 16 9 15.6 9 15V13H7V15C7 15.6 6.6 16 6 16C5.4 16 5 15.6 5 15V13C4.2 13 3.5 12.3 3.5 11.5V6.00002ZM14 6.00002C13.4 6.00002 13 6.40002 13 7.00002V11C13 11.6 13.4 12 14 12C14.6 12 15 11.6 15 11V7.00002C15 6.40002 14.6 6.00002 14 6.00002ZM2 6.00002C1.4 6.00002 1 6.40002 1 7.00002V11C1 11.6 1.4 12 2 12C2.6 12 3 11.6 3 11V7.00002C3 6.40002 2.6 6.00002 2 6.00002ZM12.5 5.00002V5.50002H3.5V5.00002C3.7 3.70002 4.4 2.50002 5.5 1.70002L5 0.700022C4.9 0.500022 5 0.200022 5.3 0.100022C5.5 2.14987e-05 5.8 0.100022 6 0.300022L6.5 1.30002C6.9 1.10002 7.5 1.00002 8 1.00002C8.5 1.00002 9.1 1.10002 9.6 1.30002L10.1 0.300022C10.2 0.100022 10.5 2.14987e-05 10.8 0.100022C11 0.200022 11.1 0.500022 11 0.700022L10.5 1.70002C11.6 2.50002 12.4 3.70002 12.5 5.00002ZM7 3.50002C7 3.20002 6.8 3.00002 6.5 3.00002C6.2 3.00002 6 3.20002 6 3.50002C6 3.80002 6.2 4.00002 6.5 4.00002C6.8 4.00002 7 3.80002 7 3.50002ZM10 3.50002C10 3.20002 9.8 3.00002 9.5 3.00002C9.2 3.00002 9 3.20002 9 3.50002C9 3.80002 9.2 4.00002 9.5 4.00002C9.8 4.00002 10 3.80002 10 3.50002Z" fill="rgb(34, 34, 34)" fill-opacity="1.00"/></svg>

<!-- Generated by Trend Micro Style Portal -->
<svg version="1.1" xmlns="http://www.w3.org/2000/svg" width="16" height="16" viewBox="0 0 16 16">
  <title>android</title>
  <path fill="rgb(34,34,34)" d="M3.5 6h9v5.5c0 0.8-0.7 1.5-1.5 1.5v2c0 0.6-0.4 1-1 1s-1-0.4-1-1v-2h-2v2c0 0.6-0.4 1-1 1s-1-0.4-1-1v-2c-0.8 0-1.5-0.7-1.5-1.5v-5.5zM14 6c-0.6 0-1 0.4-1 1v4c0 0.6 0.4 1 1 1s1-0.4 1-1v-4c0-0.6-0.4-1-1-1zM2 6c-0.6 0-1 0.4-1 1v4c0 0.6 0.4 1 1 1s1-0.4 1-1v-4c0-0.6-0.4-1-1-1zM12.5 5v0.5h-9v-0.5c0.2-1.3 0.9-2.5 2-3.3l-0.5-1c-0.1-0.2 0-0.5 0.3-0.6 0.2-0.1 0.5 0 0.7 0.2l0.5 1c0.4-0.2 1-0.3 1.5-0.3s1.1 0.1 1.6 0.3l0.5-1c0.1-0.2 0.4-0.3 0.7-0.2 0.2 0.1 0.3 0.4 0.2 0.6l-0.5 1c1.1 0.8 1.9 2 2 3.3zM7 3.5c0-0.3-0.2-0.5-0.5-0.5v0c-0.3 0-0.5 0.2-0.5 0.5s0.2 0.5 0.5 0.5c0.3 0 0.5-0.2 0.5-0.5zM10 3.5c0-0.3-0.2-0.5-0.5-0.5v0c-0.3 0-0.5 0.2-0.5 0.5s0.2 0.5 0.5 0.5v0c0.3 0 0.5-0.2 0.5-0.5z"></path>
</svg>
